src/topics/icons/elemental-ui.svg

<svg height="229" preserveAspectRatio="xMidYMid" viewBox="0 0 256 229" width="256" xmlns="http://www.w3.org/2000/svg"><g transform="translate(0 -1)"><path d="m128 166.548c5.859 0 11.718-.154 17.506-.461-5.696 7.669-11.555 14.753-17.506 21.161-5.953-6.408-11.81-13.492-17.504-21.161 5.786.307 11.644.461 17.504.461m-51.487 53.714c-3.048 0-5.771-.656-8.099-2-11.183-6.457-13.153-28.73-5.355-58.609 11.184 2.583 23.247 4.465 35.952 5.612 7.343 10.428 15.006 19.934 22.838 28.33-17.403 17.178-33.736 26.667-45.336 26.667m102.977-.003c-11.599 0-27.935-9.486-45.338-26.664 7.828-8.393 15.492-17.896 22.834-28.322l.014-.008c12.701-1.147 24.762-3.029 35.943-5.612 7.795 29.879 5.827 52.152-5.357 58.609-2.328 1.343-5.047 1.997-8.096 1.997m-16.047-64.529c3.158-4.856 6.221-9.85 9.152-14.928 2.934-5.083 5.73-10.233 8.35-15.388 3.796 8.765 7.003 17.38 9.575 25.739-8.523 1.948-17.586 3.48-27.077 4.577m-70.885 0c-9.49-1.097-18.555-2.629-27.078-4.577 2.573-8.359 5.779-16.974 9.575-25.742 2.623 5.161 5.418 10.314 8.35 15.391 2.93 5.075 5.993 10.069 9.153 14.928m-35.651-6.732c-29.775-8.187-48.079-21.029-48.079-33.943 0-12.912 18.304-25.756 48.079-33.942 3.356 10.979 7.757 22.369 13.116 33.942-5.359 11.575-9.76 22.963-13.116 33.943m142.185 0c-3.354-10.977-7.756-22.368-13.115-33.943 5.359-11.575 9.761-22.964 13.115-33.942 29.776 8.185 48.08 21.028 48.08 33.942s-18.304 25.756-48.08 33.943m-124.037-44.301c-3.796-8.764-7.002-17.38-9.575-25.738 8.523-1.95 17.588-3.483 27.078-4.578-3.159 4.854-6.222 9.849-9.153 14.927-2.932 5.079-5.727 10.228-8.35 15.389m105.89 0c-2.62-5.156-5.416-10.306-8.35-15.389-2.934-5.081-5.997-10.076-9.152-14.927 9.491 1.095 18.554 2.628 27.077 4.578-2.572 8.356-5.779 16.971-9.575 25.738m-52.947 53.022c-8.105 0-16.209-.302-24.107-.905-4.474-6.543-8.789-13.405-12.842-20.426-4.059-7.031-7.843-14.198-11.267-21.333 3.424-7.135 7.208-14.303 11.267-21.333 4.057-7.028 8.372-13.89 12.842-20.426 7.898-.603 16.003-.905 24.109-.905s16.213.302 24.112.905c4.463 6.529 8.776 13.391 12.839 20.426 4.063 7.038 7.848 14.205 11.267 21.333-3.419 7.129-7.204 14.296-11.267 21.333-4.057 7.026-8.371 13.888-12.839 20.426-7.902.603-16.009.905-24.114.905m-17.502-93.696c5.694-7.669 11.553-14.752 17.504-21.159 5.951 6.405 11.81 13.49 17.506 21.159-5.788-.307-11.644-.462-17.506-.462s-11.718.155-17.504.462m-47.437 6.434c-7.798-29.879-5.828-52.152 5.355-58.609 2.327-1.343 5.049-1.998 8.097-1.998 11.598 0 27.934 9.488 45.337 26.666-7.828 8.393-15.49 17.897-22.832 28.321l-.015.008c-12.701 1.147-24.761 3.03-35.942 5.612m129.884 0c-11.184-2.583-23.248-4.467-35.952-5.612-7.344-10.429-15.008-19.935-22.839-28.329 17.405-17.18 33.737-26.668 45.336-26.668 3.048 0 5.77.656 8.098 2 11.184 6.457 13.152 28.73 5.357 58.609m-13.45-69.457c-14.175.001-32.128 10.066-51.46 29.15l-.033-.035-.033.035c-19.335-19.087-37.286-29.148-51.462-29.148-4.591 0-8.788 1.056-12.505 3.202-15.197 8.774-18.598 33.568-9.514 68.368l-.046.012.013.047c-34.682 9.533-54.453 24.875-54.453 42.424s19.771 32.891 54.453 42.425l-.013.046.046.012c-9.084 34.802-5.683 59.595 9.514 68.368 3.717 2.145 7.91 3.199 12.501 3.199 14.174 0 32.13-10.057 51.464-29.142l.035.034.033-.034c19.338 19.086 37.286 29.147 51.464 29.147 4.589-.003 8.785-1.058 12.503-3.204 15.195-8.773 18.598-33.566 9.514-68.368l.046-.012-.011-.046c34.678-9.534 54.451-24.876 54.451-42.425s-19.773-32.891-54.451-42.424l.011-.047-.046-.012c9.084-34.801 5.681-59.594-9.514-68.368-3.719-2.148-7.913-3.205-12.507-3.204" fill="#ebf8f9"/><path d="m185.101 113.174c-3.756-7.968-7.963-15.997-12.506-23.866-4.54-7.865-9.391-15.523-14.414-22.762l-1.187-1.708-2.072-.172c-17.597-1.464-36.252-1.464-53.842 0l-2.073.172-1.187 1.708c-5.03 7.248-9.879 14.906-14.415 22.762-4.539 7.859-8.744 15.889-12.503 23.866l-.886 1.881.886 1.882c3.759 7.974 7.964 16.006 12.503 23.865 4.53 7.848 9.381 15.506 14.415 22.762l1.187 1.709 2.073.173c8.795.733 17.852 1.103 26.92 1.103 9.066 0 18.124-.37 26.922-1.103l2.072-.173 1.187-1.709c5.029-7.248 9.879-14.905 14.414-22.762 4.543-7.868 8.75-15.899 12.506-23.865l.885-1.882z" fill="#31adb8"/><path d="m145.091 98.942v-8.898h-34.746v50.282h35.381v-8.899h-24.999v-12.288h22.739v-8.827h-22.739v-11.37z" fill="#fff"/></g></svg>

<?xml version="1.0" encoding="UTF-8" standalone="no"?>
<svg width="256px" height="229px" viewBox="0 0 256 229" version="1.1" xmlns="http://www.w3.org/2000/svg" xmlns:xlink="http://www.w3.org/1999/xlink" preserveAspectRatio="xMidYMid">
	<g transform="translate(0.000000, -1.000000)">
		<path d="M128,166.548 C133.859,166.548 139.718,166.394 145.506,166.087 C139.81,173.756 133.951,180.84 128,187.248 C122.047,180.84 116.19,173.756 110.496,166.087 C116.282,166.394 122.14,166.548 128,166.548 M76.513,220.262 C73.465,220.262 70.742,219.606 68.414,218.262 C57.231,211.805 55.261,189.532 63.059,159.653 C74.243,162.236 86.306,164.118 99.011,165.265 C106.354,175.693 114.017,185.199 121.849,193.595 C104.446,210.773 88.113,220.262 76.513,220.262 M179.49,220.259 C167.891,220.259 151.555,210.773 134.152,193.595 C141.98,185.202 149.644,175.699 156.986,165.273 L157,165.265 C169.701,164.118 181.762,162.236 192.943,159.653 C200.738,189.532 198.77,211.805 187.586,218.262 C185.258,219.605 182.539,220.259 179.49,220.259 M163.443,155.73 C166.601,150.874 169.664,145.88 172.595,140.802 C175.529,135.719 178.325,130.569 180.945,125.414 C184.741,134.179 187.948,142.794 190.52,151.153 C181.997,153.101 172.934,154.633 163.443,155.73 M92.558,155.73 C83.068,154.633 74.003,153.101 65.48,151.153 C68.053,142.794 71.259,134.179 75.055,125.411 C77.678,130.572 80.473,135.725 83.405,140.802 C86.335,145.877 89.398,150.871 92.558,155.73 M56.907,148.998 C27.132,140.811 8.828,127.969 8.828,115.055 C8.828,102.143 27.132,89.299 56.907,81.113 C60.263,92.092 64.664,103.482 70.023,115.055 C64.664,126.63 60.263,138.018 56.907,148.998 M199.092,148.998 C195.738,138.021 191.336,126.63 185.977,115.055 C191.336,103.48 195.738,92.091 199.092,81.113 C228.868,89.298 247.172,102.141 247.172,115.055 C247.172,127.969 228.868,140.811 199.092,148.998 M75.055,104.697 C71.259,95.933 68.053,87.317 65.48,78.959 C74.003,77.009 83.068,75.476 92.558,74.381 C89.399,79.235 86.336,84.23 83.405,89.308 C80.473,94.387 77.678,99.536 75.055,104.697 M180.945,104.697 C178.325,99.541 175.529,94.391 172.595,89.308 C169.661,84.227 166.598,79.232 163.443,74.381 C172.934,75.476 181.997,77.009 190.52,78.959 C187.948,87.315 184.741,95.93 180.945,104.697 M127.998,157.719 C119.893,157.719 111.789,157.417 103.891,156.814 C99.417,150.271 95.102,143.409 91.049,136.388 C86.99,129.357 83.206,122.19 79.782,115.055 C83.206,107.92 86.99,100.752 91.049,93.722 C95.106,86.694 99.421,79.832 103.891,73.296 C111.789,72.693 119.894,72.391 128,72.391 C136.106,72.391 144.213,72.693 152.112,73.296 C156.575,79.825 160.888,86.687 164.951,93.722 C169.014,100.76 172.799,107.927 176.218,115.055 C172.799,122.184 169.014,129.351 164.951,136.388 C160.894,143.414 156.58,150.276 152.112,156.814 C144.21,157.417 136.103,157.719 127.998,157.719 M110.496,64.023 C116.19,56.354 122.049,49.271 128,42.864 C133.951,49.269 139.81,56.354 145.506,64.023 C139.718,63.716 133.862,63.561 128,63.561 C122.138,63.561 116.282,63.716 110.496,64.023 M63.059,70.457 C55.261,40.578 57.231,18.305 68.414,11.848 C70.741,10.505 73.463,9.85 76.511,9.85 C88.109,9.85 104.445,19.338 121.848,36.516 C114.02,44.909 106.358,54.413 99.016,64.837 L99.001,64.845 C86.3,65.992 74.24,67.875 63.059,70.457 M192.943,70.457 C181.759,67.874 169.695,65.99 156.991,64.845 C149.647,54.416 141.983,44.91 134.152,36.516 C151.557,19.336 167.889,9.848 179.488,9.848 C182.536,9.848 185.258,10.504 187.586,11.848 C198.77,18.305 200.738,40.578 192.943,70.457 M179.493,1 C165.318,1.001 147.365,11.066 128.033,30.15 L128,30.115 L127.967,30.15 C108.632,11.063 90.681,1.002 76.505,1.002 C71.914,1.002 67.717,2.058 64,4.204 C48.803,12.978 45.402,37.772 54.486,72.572 L54.44,72.584 L54.453,72.631 C19.771,82.164 0,97.506 0,115.055 C0,132.604 19.771,147.946 54.453,157.48 L54.44,157.526 L54.486,157.538 C45.402,192.34 48.803,217.133 64,225.906 C67.717,228.051 71.91,229.105 76.501,229.105 C90.675,229.105 108.631,219.048 127.965,199.963 L128,199.997 L128.033,199.963 C147.371,219.049 165.319,229.11 179.497,229.11 C184.086,229.107 188.282,228.052 192,225.906 C207.195,217.133 210.598,192.34 201.514,157.538 L201.56,157.526 L201.549,157.48 C236.227,147.946 256,132.604 256,115.055 C256,97.506 236.227,82.164 201.549,72.631 L201.56,72.584 L201.514,72.572 C210.598,37.771 207.195,12.978 192,4.204 C188.281,2.056 184.087,0.999 179.493,1" fill="#EBF8F9"></path>
		<path d="M185.101,113.174 C181.345,105.206 177.138,97.177 172.595,89.308 C168.055,81.443 163.204,73.785 158.181,66.546 L156.994,64.838 L154.922,64.666 C137.325,63.202 118.67,63.202 101.08,64.666 L99.007,64.838 L97.82,66.546 C92.79,73.794 87.941,81.452 83.405,89.308 C78.866,97.167 74.661,105.197 70.902,113.174 L70.016,115.055 L70.902,116.937 C74.661,124.911 78.866,132.943 83.405,140.802 C87.935,148.65 92.786,156.308 97.82,163.564 L99.007,165.273 L101.08,165.446 C109.875,166.179 118.932,166.549 128,166.549 C137.066,166.549 146.124,166.179 154.922,165.446 L156.994,165.273 L158.181,163.564 C163.21,156.316 168.06,148.659 172.595,140.802 C177.138,132.934 181.345,124.903 185.101,116.937 L185.986,115.055 L185.101,113.174" fill="#31ADB8"></path>
		<path d="M145.091,98.942 L145.091,90.044 L110.345,90.044 L110.345,140.326 L145.726,140.326 L145.726,131.427 L120.727,131.427 L120.727,119.139 L143.466,119.139 L143.466,110.312 L120.727,110.312 L120.727,98.942 L145.091,98.942" fill="#FFFFFF"></path>
	</g>
</svg>
